X:1
T:Title
%%score ( 1 2 ) { ( 3 5 ) | 4 }
L:1/8
Q:1/4=104
M:9/8
K:Eb
V:1 treble nm="Grand Piano, Soprano"
V:2 treble 
V:3 bass nm="Choir Pad, I Would Be Like Thee"
V:5 bass 
V:4 bass 
V:1
 [EB][E=A][Ec] [EB]3 [EG]3 | [DF]E[DF] [EG]6 | [EA][EB][Ec] [EB]3 [Ge]3 | [EG][DF]E [DF]6 | %4
w: By~Charles~Hutchinson~Gabriel * * * *||||
 [EB][E=A][Ec] [EB]3 [EG]3 | [DF]E[DF] [EG]6 | [EA][EB][Ec] [EB]3 [Ge]2 [EG] | [GB][FA][DF] E6 | %8
w: ||||
 [Ec][_DB][CA] [Ec]3 [Ac]3 | [GB][FA][EG] [GB]6 | [GB][_G=A][=GB] [Fd]3 [Fd]2 [Fd] | %11
w: |||
 [Ge][Fd][Ec] B-[FB-][GB-] [AB]3 | [GB][_G=A][_Ac] [=GB]3 [EG]3 | [EG][EF]E c-[Ac-][Ac-] [Ac]3 | %14
w: |||
 [CA][EB][Ac] [GB]3 [Ge]2 [EG] | [GB][FA][DF] E6- | E3 z3 z3 |] %17
w: |||
V:2
 x9 | x9 | x9 | x9 | x9 | x9 | x9 | x9 | x9 | x9 | x9 | z3 .D3 z3 | x9 | z3 .E3 z3 | x9 | x9 | %16
 x9 |] %17
V:3
 G,_G,A, =G,3 B,3 | A,G,B, B,6 | A,G,A, G,3 B,3 | B,B,B, z3 A,3 | G,_G,A, =G,3 B,3 | A,G,B, B,6 | %6
 A,G,A, G,3 B,2 B, | B,B,A, G,6 | z3[K:treble] A,A,A, E2 E | z3 CCC C3 | z3[K:bass] B,B,B, B,3 | %11
 =A,2[K:treble] A, B,DE F3 | z3 EEE B,2 B, | B,D_D CEE E3 | z3 EEE[K:bass] B,B,B, | B,B,B, G,6- | %16
 G,3 z3 z3 |] %17
V:4
 E,E,E, E,3 E,3 | B,,B,,B,, E,6 | C,B,,C, E,3 E,3 | E,F,G, B,,6 | E,E,E, E,3 E,3 | B,,B,,B,, E,6 | %6
 C,B,,A,, E,3 E,2 E, | B,,B,,B,, E,6 | z3 A,,A,,A,, A,,2 A,, | z3 E,E,E, E,3 | z3 F,F,F, F,3 | %11
 F,2 F, B,,B,,B,, B,,3 | z3 E,E,E, E,2 E, | E,F,G, A,,A,,E, E,3 | z3 E,E,E, E,E,E, | %15
 B,,B,,B,, E,6- | E,3 z3 z3 |] %17
V:5
 x9 | x9 | x9 | z3 B,6 | x9 | x9 | x9 | x9 | x3[K:treble] x6 | x9 | x3[K:bass] x6 | %11
 x2[K:treble] x7 | x9 | x9 | x6[K:bass] x3 | x9 | x9 |] %17

